packages/merlin-www-assets/imports/brides/icons/figure-expand.svg

<svg viewBox="0 0 40 40" xmlns="http://www.w3.org/2000/svg"><path d="m38.2928932 1h-14.2928932v-1h16v16h-1v-14.29289322l-37.29289322 37.29289322h14.29289322v1h-16v-16h1v14.2928932z"/></svg>

<svg xmlns="http://www.w3.org/2000/svg" viewBox="0 0 40 40"><title>expand</title>
  <path d="M38.2928932,1 L24,1 L24,-7.21644966e-16 L40,-7.21644966e-16 L40,16 L39,16 L39,1.70710678 L1.70710678,39 L16,39 L16,40 L-7.21644966e-16,40 L-7.21644966e-16,24 L1,24 L1,38.2928932 L38.2928932,1 Z"/>
</svg>
